ui/StatusQ/src/assets/img/icons/activity.svg

<svg fill="none" height="24" viewBox="0 0 24 24" width="24" xmlns="http://www.w3.org/2000/svg"><path clip-rule="evenodd" d="m16.75 20.2272c4.5438-2.6233 6.1006-8.4334 3.4772-12.9772-2.6233-4.54378-8.4334-6.10059-12.9772-3.47724-4.54378 2.62335-6.10059 8.43344-3.47724 12.97724s8.43344 6.1006 12.97724 3.4772zm2.5871-7.2768c.2885.1394.6192-.0515.6427-.3711.1135-1.5441-.2191-3.1374-1.0516-4.5793-.8325-1.44191-2.0461-2.52662-3.44-3.20037-.2885-.13942-.6192.05152-.6427.37105-.1135 1.5441.2191 3.13743 1.0516 4.57933.8325 1.44189 2.046 2.52659 3.44 3.20039zm-.2526 1.5327c.2516.1076.3869.3903.2802.6423-.6545 1.5456-1.799 2.8989-3.3647 3.8028s-3.3099 1.2185-4.9757 1.0125c-.2716-.0335-.4488-.2921-.4161-.5638.2367-1.9686-.1386-4.0276-1.20625-5.8769-1.06768-1.8493-2.66324-3.2038-4.48645-3.98313-.25159-.10754-.38693-.39029-.28024-.64223.65455-1.54566 1.79907-2.89891 3.36474-3.80284 1.56567-.90394 3.3099-1.21851 4.9757-1.01253.2716.03357.4488.29216.4161.5638-.2367 1.9686.1386 4.02765 1.2062 5.87693 1.0677 1.8493 2.6633 3.2038 4.4865 3.9831zm-14.0127 1.5169c-.83249-1.4419-1.16509-3.0352-1.05159-4.5793.02349-.3196.35421-.5105.64267-.3711 1.39398.6738 2.60755 1.7585 3.44004 3.2004.83248 1.4419 1.16508 3.0352 1.05158 4.5793-.02349.3195-.35421.5105-.64267.3711-1.39398-.6738-2.60755-1.7585-3.44003-3.2004z" fill="#000" fill-rule="evenodd"/></svg>

<svg width="24" height="24" viewBox="0 0 24 24" fill="none" xmlns="http://www.w3.org/2000/svg">
<path fill-rule="evenodd" clip-rule="evenodd" d="M16.75 20.2272C21.2938 17.6039 22.8506 11.7938 20.2272 7.25C17.6039 2.70622 11.7938 1.14941 7.25 3.77276C2.70622 6.39611 1.14941 12.2062 3.77276 16.75C6.39611 21.2938 12.2062 22.8506 16.75 20.2272ZM19.3371 12.9504C19.6256 13.0898 19.9563 12.8989 19.9798 12.5793C20.0933 11.0352 19.7607 9.4419 18.9282 8C18.0957 6.55809 16.8821 5.47338 15.4882 4.79963C15.1997 4.66021 14.869 4.85115 14.8455 5.17068C14.732 6.71478 15.0646 8.30811 15.8971 9.75001C16.7296 11.1919 17.9431 12.2766 19.3371 12.9504ZM19.0845 14.4831C19.3361 14.5907 19.4714 14.8734 19.3647 15.1254C18.7102 16.671 17.5657 18.0243 16 18.9282C14.4343 19.8321 12.6901 20.1467 11.0243 19.9407C10.7527 19.9072 10.5755 19.6486 10.6082 19.3769C10.8449 17.4083 10.4696 15.3493 9.40195 13.5C8.33427 11.6507 6.73871 10.2962 4.9155 9.51687C4.66391 9.40933 4.52857 9.12658 4.63526 8.87464C5.28981 7.32898 6.43433 5.97573 8 5.0718C9.56567 4.16786 11.3099 3.85329 12.9757 4.05927C13.2473 4.09284 13.4245 4.35143 13.3918 4.62307C13.1551 6.59167 13.5304 8.65072 14.598 10.5C15.6657 12.3493 17.2613 13.7038 19.0845 14.4831ZM5.0718 16C4.23931 14.5581 3.90671 12.9648 4.02021 11.4207C4.0437 11.1011 4.37442 10.9102 4.66288 11.0496C6.05686 11.7234 7.27043 12.8081 8.10292 14.25C8.9354 15.6919 9.268 17.2852 9.1545 18.8293C9.13101 19.1488 8.80029 19.3398 8.51183 19.2004C7.11785 18.5266 5.90428 17.4419 5.0718 16Z" fill="black"/>
</svg>
